www/assets/icons/broadcast_on_personal.svg

<svg xmlns="http://www.w3.org/2000/svg" width="24" height="24" viewBox="0 0 24 24" fill='currentColor'><path d="M15.25 7.5c.7 0 1.38.1 2.02.27L10.25 2.5l-8 6v12h6.76a7.998 7.998 0 0 1 6.24-13m0 6.75c-.69 0-1.25.56-1.25 1.25 0 .4.2.75.5.97v5.03H16v-5.03c.3-.23.5-.57.5-.97 0-.69-.56-1.25-1.25-1.25"/><path d="M15.25 11.5c-2.21 0-4 1.79-4 4 0 1.1.45 2.1 1.17 2.83l1.06-1.06a2.5 2.5 0 1 1 4.27-1.77c0 .69-.28 1.31-.73 1.76l1.06 1.06c.72-.72 1.17-1.72 1.17-2.82 0-2.21-1.79-4-4-4"/><path d="M15.25 9a6.5 6.5 0 0 0-6.5 6.5c0 1.79.73 3.42 1.9 4.6l1.06-1.06c-.9-.91-1.46-2.16-1.46-3.54 0-2.76 2.24-5 5-5s5 2.24 5 5c0 1.37-.56 2.62-1.46 3.52l1.07 1.06A6.5 6.5 0 0 0 15.25 9"/></svg>

<svg width="24" height="24" viewBox="0 0 24 24" xmlns="http://www.w3.org/2000/svg" fill='currentColor'><path d="M15.25 7.5C15.95 7.5 16.63 7.6 17.27 7.77L10.25 2.5L2.25 8.5V20.5H9.01C7.91 19.13 7.25 17.39 7.25 15.5C7.25 11.08 10.83 7.5 15.25 7.5Z"/><path d="M15.25 14.25C14.56 14.25 14 14.81 14 15.5C14 15.9 14.2 16.25 14.5 16.47V21.5H16V16.47C16.3 16.24 16.5 15.9 16.5 15.5C16.5 14.81 15.94 14.25 15.25 14.25Z"/><path d="M15.25 11.5C13.04 11.5 11.25 13.29 11.25 15.5C11.25 16.6 11.7 17.6 12.42 18.33L13.48 17.27C13.03 16.82 12.75 16.19 12.75 15.5C12.75 14.12 13.87 13 15.25 13C16.63 13 17.75 14.12 17.75 15.5C17.75 16.19 17.47 16.81 17.02 17.26L18.08 18.32C18.8 17.6 19.25 16.6 19.25 15.5C19.25 13.29 17.46 11.5 15.25 11.5Z"/><path d="M15.25 9C11.66 9 8.75 11.91 8.75 15.5C8.75 17.29 9.48 18.92 10.65 20.1L11.71 19.04C10.81 18.13 10.25 16.88 10.25 15.5C10.25 12.74 12.49 10.5 15.25 10.5C18.01 10.5 20.25 12.74 20.25 15.5C20.25 16.87 19.69 18.12 18.79 19.02L19.86 20.08C21.03 18.9 21.75 17.28 21.75 15.5C21.75 11.91 18.84 9 15.25 9Z"/></svg>
